X:1
T:Good love, then fly thou to her - Morley
T:James Gibb editions
T:#
%%score { 1 | 2 } 3 { 4 | 5 } 6
L:1/8
M:4/4
K:Bb
V:1 treble nm="Soprano I" snm="S"
V:2 treble 
V:3 treble nm="Alto" snm="A"
V:4 treble-8 nm="Tenor I" snm="T"
V:5 treble-8 
V:6 bass nm="Bass" snm="B"
V:1
"^Good love, then fly thou to her" z8 | z8 | d8 | B6 c2 | d3 c (B2 A2) | %5
w: ||Good|love then|fly thou to *|
 G4"^Thomas Morley\n(1557-1603)" F4 | B8- |[M:4/4] B4 B4 | B4 F4 | G4 D4- | D4 d4 | d6 =e2 | %12
w: her, good|love,|* then|fly thou|to her,|* good|love, then|
 f6 =e2 | (d4 A4) | A8 | z8 | z8 | z8 | z4 =e4 | f6 =e2 | d2 =e2 f2 d2 | e4 e4 | d8- | d8 | d8 | %25
w: fly thou|to *|her,||||good|love, then|fly * * *|* thou|to||her,|
 z4 G4 | B8- | B4 A4 | F4 G4 | A4 =E2 E2 | F4 D4 | =E8 | D4 A4- | A4 G4- | G4 F4 | =E2 D2 (D4- | %36
w: And|see|* if|thou canst|woo her, if|thou canst|woo|her, and|* see|* if|thou canst woo|
 D4 ^C4) | D8 |[Q:1/4=120][Q:1/4=120][Q:1/4=120][Q:1/4=120] z8 | z8 | z4 d4 | e8- | e4 d4 | c4 B4 | %44
w: |her,|||and|see|* If|thou canst|
 (A4 G4) | A8- | A8 | z8 | z8 | z8 | z4 G4 | B8 | A4 G4- | G4 F4 | (E4 C4) | F8- | F4 c4 | B6 B2 | %58
w: woo *|her,|||||and|see|if thou|* canst|woo *|her,|* and|see if|
 G4 F4 | F8 | F8 | z8 | z4 d4 | f8- | f8 | z8 | z4 c4 | d2 d4 ^c2 | d8 | z4 f4 | f4 =e4 | f4 c4 | %72
w: thou canst|woo|her:||Go|sweet|||and|turn a- bout|her,|For|sure I|die, for|
 f6 f2 | e4 d4 | c8- | c8 | =B8 | z8 | z8 | z8 | z8 | z8 | z8 | z4 d4 | f6 f2 | f4 e4 | d4 c4 | %87
w: sure I|die with-|out||her.|||||||But|if she|still ab-|hor, ab-|
 d8 | d8 ||[M:3/2] z12 | z4 z4 d4 |[M:3/2] d4 =e2 f4 _e2 | d4 d8 ||[M:4/4] z8 | z8 | z2 f2 f2 f2 | %96
w: hor|me,||and|will do no- thing|for me,|||Sweet love, sweet|
[M:4/4] g3 g f2 f2 | f8 | f2 d2 d2 d2 | e3 e d2 d2 | c8 | c8 | z8 | z8 | z8 | z2 f2 g2 f2 | %106
w: Love this fa- vour|do|me, sweet love, sweet|love this fa- vour|do|me,||||sweet love, sweet|
 e2 d2 c2 B2 | (A2 B2 c4) | d4 d4 | e4 d4 | c4 B4 | A8 | G4 z4 | z8 | z8 | z8 | z4 d4 | e4 d4 | %118
w: love this fa- vour|do * *|me: Re-|turn thou|ne- ver|to|me,||||re-|turn thou|
 c4 B4 | (A4 d4) | d8 | G8 |[Q:1/4=118] G4[Q:1/4=115] G4 |[Q:1/4=113] G4[Q:1/4=110] G4 | %124
w: ne- ver|to *|me,|re-|turn thou|ne- ver|
[Q:1/4=107] G8- |[Q:1/4=102] G8 |[Q:1/4=100] G16 |] %127
w: to||me.|
V:2
 G8 | B6 A2 | G3 A (B2 c2) | d8 | z4 d4- | d4 d4 | g4 f4- |[M:4/4] f4 d4 | f3 =e d2 c2 | %9
w: Good|love then|fly thou to *|her,|fly|* thou|to her,|* good|love, then fly thou|
 (B2 A2 B2 c2 | d6 c2 | B2 A2 G4) | A8- | A8 | z4 d4 | f6 =e2 | (d2 c2 d2 =e2 | f4) f4 | =e8 | %19
w: to * * *|||her,||good|love, then|fly * * *|* thou|to|
 d4 A4 | B8 | G4 A4- | A2 G2 (G4- | G4 ^F4) | G8- | G8 | z4 d4 | f8- | f4 =e4 | c4 c4 | d4 d2 d2- | %31
w: her, good|love,|then fly|* thou to||her,||And|see|* if|thou canst|woo her, woo|
 d2 ^c=B c4 | d8 | z8 | z8 | z8 | z4 =e4 | f8- | f4 e4 | d4 (d4 | c2 B2) (B4- | B4 A4) | B4 B4 | %43
w: |her,||||And|see|* if|thou canst|* * woo||her, And|
 (A4 G2) F2 | =E4 D4 | =E8 | D8 | z8 | z8 | z8 | z8 | z8 | z8 | z4 d4 | e8- | e4 d4 | c4 f4 | %57
w: see * if|thou canst|woo|her,|||||||and|see|* if|thou, if|
 e4 d4 | (c2 B2 B4- | B2 AG A4) | B4 B4 | d4 d4- | d4 f4 | d8 | c4 c4 | d2 f2 (f2 =e2) | f8 | z8 | %68
w: thou canst|woo * *||her: Go|sweet, go|* sweet,|go|sweet and|turn a- bout *|her,||
 z8 | z8 | z4 c4 | c4 A4 | B6 B2 | G6 F2 | (=E2 F2 G4- | G4 ^F4) | G8 | z4 d4 | f6 f2 | c4 c4 | %80
w: ||For|sure I|die, I|die with-|out * *||her.|But|if she|still ab-|
 (e4 d4- | d4 c4) | d8- | d8 | z8 | z8 | z8 | z8 | z4 d4 ||[M:3/2] d4 =e2 f4 d2 | (c2 B2) A4 A4 | %91
w: hor *||me||||||and|will do no- thing|for * me, and|
[M:3/2] =B4 c2 d4 c2 | A4 =B4 z4 ||[M:4/4] d4 d2 d2 | e3 e d2 d2 | c4 d2 d2 | %96
w: will do no- thing|for me,|Sweet love, sweet|love this fa- vour|do me, sweet|
[M:4/4] e3 !courtesy!_e d2 d2 | c2 d2 c4 | d4 z4 | z8 | z8 | z4 z2 f2 | e2 d2 c2 B2 | %103
w: love, sweet love this|fa- vour do|me,|||sweet|love, sweet love this|
 A2 d2 (c2 B2 | A2 B4 A2) | B4 z2 f2 | g2 f2 e2 d2 | c2 B2 A4 | B8 | z8 | z8 | z4 A4 | B4 A4 | %113
w: fa- vour do *||me, sweet|love, sweet love this|fa- vour do|me:|||Re-|turn thou|
 G4 F4 | (F4 E4) | D8 | z8 | z8 | z8 | z8 | z8 | z4 d4 | e4 d4 | c4 =B4 | c8- | c8 | d16 |] %127
w: ne- ver|to *|me,||||||re-|turn thou|ne- ver|to||me.|
V:3
 z8 | z8 | z8 | z8 | z8 | z8 | z8 |[M:4/4] z8 | z8 | z4 G4 | B6 A2 | G2 A2 (B2 c2) | d8 | z8 | z8 | %15
w: |||||||||Good|love, then|fly thou to *|her,|||
 z8 | z4 A4 | A8- | A4 A4 | A6 G2 | (F8 | E2 D2 C2 B,2 | A,4 D4) | D8 | z4 D4 | E8 | D4 G4 | %27
w: |good|love,|* then|fly thou|to|||her,|And|see|if thou|
 (F6 G2 | A2 B2 c4- | c2 B2 A4- | A4 G4 | A8 | z8 | D8 | B8- | B4 A4 | G8 | z4 A4 | B8- | B4 A4 | %40
w: canst *|||* woo|her,||and|see|* if|thou,|and|see|* if|
 G4 F4 | E4 E4 | G4 F4- | F4 D4 | ^C2 C2 D4- | D4 ^C4) | D8 | z4 B,4 | F4 F4 | E4 D4- | D4 C4 | %51
w: thou canst|woo her,|and see|* if|thou canst woo||her,|and|see if|thou canst|* woo|
 D8 | z8 | z8 | z8 | B,4 B4- | B4 A4 | G4 F4 | (E4 D4 | C8) | D4 F4 | B8- | B4 B4 | F4 B4 | A6 A2 | %65
w: her,||||and see|* if|thou canst|woo *||her: Go|sweet,|* go|sweet, go|sweet and|
 B2 B2 c4 | c4 A4 | B4 B2 A2 | A4 B4 | A4 A4 | G8 | A4 F4 | F8 | z4 D4 | G2 (F2 =E2 D2) | C8 | %76
w: turn a- bout|her, and|turn a- bout|her, For|sure I|die|with- out|her,|I|die with\- * *|out|
 D4 G4 | _B6 B2 | B4 A4 | A6 A2 | c4 (B4- | B2 A2) G4 | ^F4 A4 | B6 B2 | A4 A4 | (d4 c2 B2 | %86
w: her. But|if she|still, but|if she|still ab\-|* * hor|me, but|if she|still ab-|hor * *|
 A4 G4 | A8) | =B4 _B4 ||[M:3/2] B6 B2 B4 | A2 G2 ^F4 F4 |[M:3/2] G4 G2 B4 G2 | (G2 ^F2) G4 B4 || %93
w: ||me, and|will do no-|thing for me, and|will do no- thing|for * me, Sweet|
[M:4/4] B6 B2 | B3 B B2 B2 | A4 B2 B2 |[M:4/4] B3 B B2 B2 | A2 B2 A4 | B4 B4 | B6 B2 | G2 A2 G4 | %101
w: love, sweet|love this fa- vour|do me, sweet|love, sweet love this|fa- vour do|me, sweet|love this|fa- vour do|
 A2 F2 A2 c2 | B3 B G2 F2 | F8- | F8 | F2 B2 B3 B | B3 B G2 F2 | F8 | F4 B4 | B4 B4 | A4 G4 | %111
w: me, sweet love, sweet|love this fa- vour|do||me, sweet love, sweet|love this fa- vour|do|me: Re-|turn thou|ne- ver|
 (G4 ^F4) | G4 z4 | z8 | z8 | z4 A4 | B4 A4 | G4 B4 | (A2 G2 G4- | G4 ^F4) | G4 D4 | E4 D4 | %122
w: to *|me,|||re-|turn thou|ne- ver|to * *||me, re-|turn thou|
 C4 =B,4 | (C4 D4 | E8- | E8) | D16 |] %127
w: ne- ver|to *|||me.|
V:4
 z8 | z8 | z8 | z8 | z8 | z8 | d8 |[M:4/4][K:treble-8] B6 c2 | d3 c (B2 A2) | G4 G4 | g4 d4 | %11
w: ||||||Good|love, then|fly thou to *|her, then|fly thou|
 (d4 B4) | A8 | z4 d4 | f6 =e2 | d2 =e2 (f2 g2) | a8 | z8 | z4 A4 | A4 F4 | F4 F4 | (c2 B2 A2 G2) | %22
w: to *|her,|good|love, then|fly thou to *|her,||good|love, then|fly thou|to * * *|
 ^F4 G4 | A4 d4 | =B8 | z8 | z4 G4 | d8- | d4 c4 | A4 c4 | B4 B2 B2 | A8 | D8 | z8 | z8 | z8 | z8 | %37
w: her, fly|thou to|her,||And|see|* if|thou canst|woo her, canst|woo|her.|||||
 z8 | z4 G4 | g4 f4 | e4 d4 | c8 | B4 B4 | F4 G4 | A4 B4 | A8 | A4 A4 | G8 | F8 | z8 | z8 | z4 d4 | %52
w: |And|see if|thou canst|woo|her, and|see if|thou canst|woo|her, canst|woo|her,|||and|
 e8- | e4 d4 | c4 c4 | (F6 G2 | A2 B2 c2 A2 | B2 c2 d4) | G4 B4 | (c4 F4) | F8 | z8 | z4 d4- | %63
w: see|* if|thou canst|woo *|||her, canst|woo *|her:||Go|
 d4 f4- | f4 f4 | f2 f2 g2 g2 | a4 f2 f2 | f4 g2 =e2 | ^f4 d4 | c4 c4 | c8- | c4 c4 | d8 | c4 =B4 | %74
w: * sweet,|* go|sweet and turn a-|bout her, and|turn a- bout|her, For|sure I|die|* with-|out|her, with-|
 (c8 | A8) | G8 | z4 d4 | d6 d2 | A4 A4 | G4 B4 | G8 | A4 d4 | g6 g2 | f4 f4 | b4 g4 | (^f4 g4- | %87
w: out||her,|But|if she|still, she|still ab-|hor|me, but|if she|still, she|still ab-|hor *|
 g4 ^f4) | g8 ||[M:3/2] z12 | z4 z4 d4 |[M:3/2][K:treble-8] G4 c2 B4 c2 | d4 G4 G4 || %93
w: |me,||and|will do no- thing|for me, Sweet|
[M:4/4] B6 B2 | B3 B B2 B2 | c4 B2 B2 |[M:4/4][K:treble-8] e4 B4 | f2 d2 f4 | f2 B2 B4- | %99
w: love, sweet|love this fa- vour|do me, sweet|love this|fa- vour do|me, sweet love|
 B2 B2 B2 F2 | c8 | c6 F2 | G2 B2 E2 B2 | F4 F4 | F8 | B4 z2 B2 | B2 B2 c2 d2 | A2 d2 c4 | B4 B4 | %109
w: * this fa- vour|do|me, sweet|love, sweet love this|fa- vour|do|me, sweet|love, sweet love this|fa- vour do|me: Re-|
 e4 B4 | F4 G4 | (D4 d4) | d4 A4 | B4 B4 | A4 G4 | (G4 ^F4) | G4 D4 | G4 F2 G2 | A4 (B2 G2) | %119
w: turn thou|ne- ver|to *|me, re-|turn thou|ne- ver|to *|me, Re-|turn thou ne-|ver to *|
 A4 A4 | B4 A4 | G4 B4 | G8- | G8 | G8 | G8 | G16 |] %127
w: me, re-|turn thou|ne- ver|to||||me.|
V:5
 z8 | z8 | z8 | z8 | G8 | B6 A2 | G3 A (B2 c2) |[M:4/4][K:treble-8] d8 | z8 | z8 | z8 | z8 | %12
w: ||||Good|love, then|fly thou to *|her,|||||
 z4 d4 | f6 =e2 | d2 =e2 (f2 g2) | a8 | z8 | d4 d4- | d4 ^c4 | d8- | d8 | c4 c4- | c4 B4 | A8 | %24
w: good|love, then|fly thou to *|her,||good love,|* good|love,||then fly|* thou|to|
 G8- | G8 | z8 | z8 | z8 | z8 | z8 | z4 =e4 | f8- | f4 =e4 | d4 c4 | B4 d2 d2 | G8 | A8 | z8 | z8 | %40
w: her,|||||||And|see|* if|thou canst|woo her, canst|woo|her,|||
 z8 | z8 | z8 | z8 | z8 | z4 =e4 | f8- | f4 e4 | d4 c4 | B4 A4 | G8 | F4 F4 | c8 | B4 (B4- | %54
w: |||||and|see|* if|thou, if|thou canst|woo|her, if|thou|canst woo|
 B2 AG A4) | B8 | z8 | z8 | z8 | z8 | z4 B4- | B4 f4- | f4 z4 | B8 | c4 c4 | B2 d2 c4 | F8 | z8 | %68
w: |her:|||||Go|* sweet,||go|sweet and|turn a- bout|her,||
 z4 f4 | f4 F4 | G4 G4 | F2 G2 A4 | (F4 D4) | G8 | z8 | z8 | z4 d4 | g6 g2 | f4 f4 | f8 | %80
w: For|sure I|die with-|out her, with-|out *|her.|||But|if she|still ab-|hor|
 g2 g2 f4 | g8 | z8 | z4 G4 | d6 d2 | B4 c4 | (d4 e4) | d8- | d4 d4 ||[M:3/2] f4 f2 d4 f2 | %90
w: me, ab- hor|me,||but|if she|still ab-|hor *|me,|* and|will do no- thing|
 (f2 d2) d8 |[M:3/2][K:treble-8] z4 z4 z4 | z4 z4 g4 ||[M:4/4] f4 f4 | g3 g f2 f2 | f4 f4 | %96
w: for * me,||Sweet|love, sweet|love this fa- vour|do me,|
[M:4/4][K:treble-8] z8 | z8 | z2 f2 f4 | g4 f3 f | =e2 f2 (f2 e2) | f8 | z2 f2 e2 d2 | %103
w: ||sweet love|sweet love this|fa- vour do *|me,|sweet love, sweet|
 c2 B2 A2 d2 | (c2 d2 c4) | d2 d2 e2 d2 | B2 d2 G2 B2 | (c2 F2) F4- | F4 f4 | g4 f4 | f4 d4 | %111
w: love this fa- vour|do * *|me, sweet love sweet|love this fa- vour|do * me:|* Re-|turn thou|ne- ver|
 d4 d4 | z4 d4 | e4 d4 | c6 B2 | (A4 d4) | d8 | z4 f4- | f4 d4 | d8 | d8 | z8 | z4 d4 | e4 d4 | %124
w: to me,|re-|turn thou|ne- ver|to *|me,|ne\-|* ver|to|me,||re-|turn thou|
 c4 G4 | c8 | =B16 |] %127
w: ne- ver|to|me.|
V:6
 z8 | z8 | z8 | z8 | z8 | z8 | z8 |[M:4/4] z4 D4 | B,6 C2 | (D3 C B,2 A,2 | G,4) G,4 | G,8 | D,8- | %13
w: |||||||Good|love, then|fly * * *|* thou|to|her,|
 D,8 | z8 | D,8 | F,6 =E,2 | D,3 =E, (F,2 G,2) | A,8 | D,8 | B,,4 B,,4 | C,4 C,4 | D,8- | D,8 | %24
w: ||good|love, then|fly thou to *|her,|Good|Love then|fly thou|to||
 G,,8- | G,,8 | z8 | z8 | z8 | z8 | z8 | z8 | z4 A,4 | B,8- | B,4 A,4 | G,4 F,4 | =E,4 E,4 | D,8 | %38
w: her,||||||||And|see|* if|thou canst|woo her,|woo|
 G,8 | z8 | z8 | z8 | z8 | z8 | z8 | z8 | D,8 | B,8- | B,4 A,4 | G,4 F,4 | E,8 | D,8 | C,4 E,4- | %53
w: her,||||||||and|see|* if|thou canst|woo|her,|if thou|
 E,4 B,,4 | C,8 | B,,4 B,,4 | F,4 F,4 | G,4 B,4 | E,4 B,,2 B,,2 | F,8 | B,,8 | z4 B,,4 | B,8 | %63
w: * canst|woo|her, and|see if|thou canst|woo her, canst|woo|her:|Go|sweet,|
 z4 B,,4 | F,8 | z8 | z4 F,4 | B,4 G,2 A,2 | D,4 B,,4 | F,8 | C,8 | F,6 =E,2 | (D,4 B,,4) | %73
w: go|sweet||and|turn a- bout|her, For|sure|I|die, I|die *|
 C,4 G,4 | C,8 | z8 | z4 G,4 | G,6 G,2 | D,4 D,4 | F,8 | C,4 D,4 | E,8 | D,8 | z8 | z8 | z8 | z8 | %87
w: with- out|her.||But|if she|still ab-|hor|me, ab-|hor|me,|||||
 z4 D,4 | G,4 G,2 B,2- ||[M:3/2] B,2 B,4 B,,2 B,,2 B,,2 | (F,2 G,2) D,8 |[M:3/2] z4 z4 z4 | %92
w: and|will do no\-|* thing, do no- thing|for * me,||
 z4 z4 z4 ||[M:4/4] B,,4 B,,2 B,,2 | E,3 E, B,,2 B,,2 | F,4 B,,4 |[M:4/4] z8 | z4 F,4 | %98
w: |Sweet love, sweet|love this fa- vour|do me,||sweet|
 B,2 B,2 B,,3 B,, | E,4 B,,4 | C,8 | F,8 | z8 | z8 | z8 | z2 B,,2 E,2 B,,2 | E,2 B,2 E,2 B,,2 | %107
w: love, sweet love this|fa- vour|do|me,||||sweet love, sweet|love this fa- vour|
 F,8 | B,,8 | z8 | z8 | z4 D,4 | G,4 F,4 | E,4 B,,4 | C,8 | D,4 D,4 | G,4 F,4 | E,4 B,,4 | %118
w: do|me:|||Re-|turn thou|ne- ver|to|me, re-|turn thou|ne- ver|
 (F,4 G,4) | D,4 D,4 | G,4 F,4 | E,4 B,,4 | C,4 G,2 G,2 | C,4 G,4 | C,4 C,4 | C,8 | G,16 |] %127
w: to *|me, re-|turn thou|ne- ver|to me, re-|turn thou|ne- ver|to|me.|

